dist/images/p-s-second-section/sort-off.svg

<svg width="22" height="17" viewBox="0 0 22 17" fill="none" xmlns="http://www.w3.org/2000/svg">
<path d="M4.63581 12.9384L4.63493 12.9375C4.611 12.9128 4.58338 12.894 4.55407 12.8815L4.75062 12.4218L4.55407 12.8815C4.52479 12.869 4.49395 12.8628 4.46318 12.8628C4.43241 12.8628 4.40157 12.869 4.37229 12.8815L4.17574 12.4218L4.37229 12.8815C4.34298 12.894 4.31536 12.9128 4.29143 12.9375L4.29114 12.9378L2.57222 14.7103L2.21221 15.0816L1.85331 14.7093L1.63551 14.4833C1.63537 14.4832 1.63523 14.483 1.63509 14.4829C1.58686 14.4334 1.52479 14.4085 1.46332 14.4085C1.40166 14.4085 1.33941 14.4336 1.29112 14.4833C1.24235 14.5336 1.2124 14.6048 1.2124 14.6821C1.2124 14.7594 1.24235 14.8307 1.29112 14.8809L2.04109 15.6536L2.04153 15.6541C2.06546 15.6788 2.09307 15.6975 2.12239 15.7101C2.12239 15.7101 2.1224 15.7101 2.1224 15.7101L1.92584 16.1698C2.01696 16.2088 2.11464 16.2288 2.21328 16.2288C2.31193 16.2288 2.40961 16.2088 2.50072 16.1698L4.63581 12.9384ZM4.63581 12.9384C4.65982 12.9631 4.67964 12.9932 4.69342 13.0275L5.15722 12.8407L4.63581 12.9384ZM4.63493 0.574913L4.63581 0.575819C4.65983 0.600495 4.67964 0.630616 4.69342 0.664831L4.69342 0.664833C4.70721 0.699065 4.71449 0.736262 4.71449 0.774168C4.71449 0.812073 4.70721 0.849271 4.69342 0.883503L4.69342 0.883505C4.67964 0.917719 4.65983 0.94784 4.63581 0.972517L4.63537 0.97297L2.38547 3.29096L2.38503 3.29142C2.3611 3.31614 2.33349 3.33492 2.30417 3.34746C2.2749 3.35997 2.24406 3.36621 2.21328 3.36621C2.18251 3.36621 2.15167 3.35997 2.12239 3.34746L1.92584 3.8072L2.12239 3.34746C2.09308 3.33492 2.06546 3.31614 2.04153 3.29142L2.04109 3.29096L1.29112 2.5183L0.944509 2.85473L1.29112 2.5183C1.26709 2.49353 1.24726 2.46333 1.23347 2.42904C1.21968 2.39473 1.2124 2.35747 1.2124 2.3195C1.2124 2.28153 1.21968 2.24426 1.23347 2.20995C1.24726 2.17566 1.26709 2.14546 1.29112 2.12069L0.93234 1.77245L1.29112 2.12069C1.31513 2.09596 1.34282 2.07716 1.37221 2.06462C1.40156 2.0521 1.43247 2.04586 1.46332 2.04586C1.49416 2.04586 1.52508 2.0521 1.55443 2.06462C1.58363 2.07708 1.61116 2.09573 1.63506 2.12024C1.63521 2.12039 1.63536 2.12054 1.63551 2.12069L1.85331 2.34663L2.21221 2.71893L2.57222 2.3477L4.29114 0.575209L4.29143 0.574912C4.31536 0.550193 4.34298 0.531406 4.37229 0.518873C4.40157 0.506356 4.43241 0.500122 4.46318 0.500122C4.49395 0.500122 4.52479 0.506356 4.55407 0.518873C4.58338 0.531405 4.611 0.550192 4.63493 0.574913ZM4.63493 6.75623L4.63581 6.75713C4.65982 6.78181 4.67964 6.81193 4.69342 6.84615L5.15722 6.65935L4.69342 6.84615C4.70721 6.88038 4.71449 6.91758 4.71449 6.95548C4.71449 6.99339 4.70721 7.03059 4.69342 7.06482L5.15722 7.25162L4.69342 7.06482C4.67964 7.09903 4.65983 7.12916 4.63581 7.15383L4.63537 7.15429L2.38547 9.47228L2.38503 9.47273C2.3611 9.49745 2.33349 9.51624 2.30417 9.52877C2.27489 9.54129 2.24405 9.54752 2.21328 9.54752C2.18251 9.54752 2.15167 9.54129 2.12239 9.52877C2.09308 9.51624 2.06546 9.49745 2.04153 9.47273L2.04109 9.47228L1.29112 8.69961C1.24235 8.64936 1.2124 8.57812 1.2124 8.50081C1.2124 8.42351 1.24235 8.35226 1.29112 8.30201L0.93234 7.95377L1.29112 8.30201C1.33941 8.25227 1.40166 8.22717 1.46332 8.22717C1.52477 8.22717 1.58683 8.25211 1.63504 8.30153C1.6352 8.30169 1.63535 8.30185 1.63551 8.30201L1.85331 8.52795L2.21221 8.90024L2.57222 8.52902L4.29114 6.75652L4.29143 6.75623C4.31536 6.73151 4.34298 6.71272 4.37229 6.70019L4.17574 6.24044L4.37229 6.70019C4.40157 6.68767 4.43241 6.68144 4.46318 6.68144C4.49395 6.68144 4.52479 6.68767 4.55407 6.70019L4.75062 6.24044L4.55407 6.70019C4.58339 6.71272 4.611 6.73151 4.63493 6.75623ZM7.21308 14.6821C7.21308 14.6051 7.24293 14.5341 7.29152 14.484C7.33963 14.4345 7.40164 14.4095 7.46305 14.4095H20.9624C21.0238 14.4095 21.0859 14.4345 21.134 14.484C21.1826 14.5341 21.2124 14.6051 21.2124 14.6821C21.2124 14.7592 21.1826 14.8302 21.134 14.8802C21.0859 14.9298 21.0238 14.9548 20.9624 14.9548H7.46305C7.40164 14.9548 7.33963 14.9298 7.29152 14.8802C7.24293 14.8302 7.21308 14.7592 7.21308 14.6821ZM7.21308 8.50081C7.21308 8.42377 7.24293 8.35277 7.29152 8.3027C7.33963 8.25314 7.40164 8.22815 7.46305 8.22815H20.9624C21.0238 8.22815 21.0859 8.25314 21.134 8.3027C21.1826 8.35277 21.2124 8.42376 21.2124 8.50081C21.2124 8.57786 21.1826 8.64886 21.134 8.69893C21.0859 8.74848 21.0238 8.77348 20.9624 8.77348H7.46305C7.40164 8.77348 7.33963 8.74848 7.29152 8.69893C7.24293 8.64886 7.21308 8.57786 7.21308 8.50081ZM7.21308 2.3195C7.21308 2.24245 7.24293 2.17145 7.29152 2.12138C7.33963 2.07182 7.40164 2.04683 7.46305 2.04683H20.9624C21.0238 2.04683 21.0859 2.07182 21.134 2.12138C21.1826 2.17145 21.2124 2.24245 21.2124 2.3195C21.2124 2.39655 21.1826 2.46754 21.134 2.51761C21.0859 2.56717 21.0238 2.59216 20.9624 2.59216H7.46305C7.40164 2.59216 7.33963 2.56717 7.29152 2.51761C7.24293 2.46754 7.21308 2.39654 7.21308 2.3195Z" fill="#252B42" stroke="#252B42"/>
</svg>

<svg width="22" height="17" fill="none" xmlns="http://www.w3.org/2000/svg"><path d="M4.636 12.938h-.001a.249.249 0 00-.08-.056l.196-.46-.197.46a.231.231 0 00-.182 0l-.196-.46.196.46a.249.249 0 00-.08.056h0l-1.72 1.772-.36.372-.359-.373-.217-.226s0 0 0 0a.24.24 0 00-.173-.075.24.24 0 00-.172.075.286.286 0 00-.079.2c0 .076.03.148.08.198l.75.773h0a.25.25 0 00.08.056s0 0 0 0l-.196.46a.73.73 0 00.575 0l2.135-3.232zm0 0a.274.274 0 01.057.09l.464-.187-.521.097zM4.635.575h0a.274.274 0 01.058.09h0a.293.293 0 010 .219h0a.274.274 0 01-.057.089h0l-2.25 2.318h-.001a.249.249 0 01-.08.056.231.231 0 01-.183 0l-.196.46.196-.46a.25.25 0 01-.08-.056h0l-.75-.773-.347.337.346-.337a.294.294 0 010-.398l-.359-.348.36.349a.25.25 0 01.08-.056.232.232 0 01.263.055s0 0 0 0l.218.227.36.372.36-.371L4.29.575h0a.249.249 0 01.081-.056.23.23 0 01.263.056zm0 6.181v.001a.275.275 0 01.058.09l.464-.188-.464.187a.293.293 0 010 .219l.464.187-.464-.187a.274.274 0 01-.057.089h0l-2.25 2.318h-.001a.249.249 0 01-.08.057.23.23 0 01-.263-.056h0l-.75-.773a.286.286 0 01-.08-.2c0-.076.03-.148.08-.198l-.36-.348.36.348a.24.24 0 01.171-.075.24.24 0 01.172.075s0 0 0 0l.218.226.36.372.36-.371L4.29 6.757h0a.249.249 0 01.081-.057l-.196-.46.196.46a.23.23 0 01.182 0l.197-.46-.197.46c.03.013.057.032.08.056zm2.578 7.926c0-.077.03-.148.079-.198a.24.24 0 01.171-.075h13.5a.24.24 0 01.171.075c.049.05.078.121.078.198 0 .077-.03.148-.078.198a.24.24 0 01-.172.075H7.463a.239.239 0 01-.171-.075.285.285 0 01-.079-.198zm0-6.181c0-.077.03-.148.079-.198a.24.24 0 01.171-.075h13.5a.24.24 0 01.171.075.28.28 0 01.078.198c0 .077-.03.148-.078.198a.24.24 0 01-.172.074H7.463a.24.24 0 01-.171-.074.285.285 0 01-.079-.198zm0-6.181c0-.078.03-.149.079-.199a.24.24 0 01.171-.074h13.5a.24.24 0 01.171.074c.049.05.078.121.078.199 0 .077-.03.148-.078.198a.24.24 0 01-.172.074H7.463a.24.24 0 01-.171-.074.285.285 0 01-.079-.198z" fill="#252B42" stroke="#252B42"/></svg>
